Newaita/actions/32/view-sort-descending.svg

<?xml version="1.0" encoding="UTF-8"?>
<svg xmlns="http://www.w3.org/2000/svg" xmlns:xlink="http://www.w3.org/1999/xlink" width="32pt" height="32pt" viewBox="0 0 32 32" version="1.1">
<g id="surface1">
<path style=" stroke:none;fill-rule:nonzero;fill:rgb(14.901961%,65.098041%,60.392159%);fill-opacity:1;" d="M 4.628906 17.78125 C 5.726562 17.78125 6.613281 18.667969 6.613281 19.765625 C 6.613281 20.859375 5.726562 21.75 4.628906 21.75 C 3.535156 21.75 2.644531 20.859375 2.644531 19.765625 C 2.644531 18.667969 3.535156 17.78125 4.628906 17.78125 Z M 4.628906 17.78125 "/>
<path style=" stroke:none;fill-rule:nonzero;fill:rgb(14.901961%,65.098041%,60.392159%);fill-opacity:1;" d="M 4.628906 10.503906 C 5.726562 10.503906 6.613281 11.390625 6.613281 12.488281 C 6.613281 13.585938 5.726562 14.472656 4.628906 14.472656 C 3.535156 14.472656 2.644531 13.585938 2.644531 12.488281 C 2.644531 11.390625 3.535156 10.503906 4.628906 10.503906 Z M 4.628906 10.503906 "/>
<path style=" stroke:none;fill-rule:nonzero;fill:rgb(14.901961%,65.098041%,60.392159%);fill-opacity:1;" d="M 4.628906 25.058594 C 5.726562 25.058594 6.613281 25.945312 6.613281 27.042969 C 6.613281 28.136719 5.726562 29.027344 4.628906 29.027344 C 3.535156 29.027344 2.644531 28.136719 2.644531 27.042969 C 2.644531 25.945312 3.535156 25.058594 4.628906 25.058594 Z M 4.628906 25.058594 "/>
<path style=" stroke:none;fill-rule:nonzero;fill:rgb(25.882354%,25.882354%,25.882354%);fill-opacity:1;" d="M 10.253906 26.050781 L 28.113281 26.050781 C 28.664062 26.050781 29.105469 26.492188 29.105469 27.042969 C 29.105469 27.589844 28.664062 28.035156 28.113281 28.035156 L 10.253906 28.035156 C 9.707031 28.035156 9.261719 27.589844 9.261719 27.042969 C 9.261719 26.492188 9.707031 26.050781 10.253906 26.050781 Z M 10.253906 26.050781 "/>
<path style=" stroke:none;fill-rule:nonzero;fill:rgb(25.882354%,25.882354%,25.882354%);fill-opacity:1;" d="M 10.253906 18.773438 L 28.113281 18.773438 C 28.664062 18.773438 29.105469 19.21875 29.105469 19.765625 C 29.105469 20.3125 28.664062 20.757812 28.113281 20.757812 L 10.253906 20.757812 C 9.707031 20.757812 9.261719 20.3125 9.261719 19.765625 C 9.261719 19.21875 9.707031 18.773438 10.253906 18.773438 Z M 10.253906 18.773438 "/>
<path style=" stroke:none;fill-rule:nonzero;fill:rgb(25.882354%,25.882354%,25.882354%);fill-opacity:1;" d="M 10.253906 11.496094 L 28.113281 11.496094 C 28.664062 11.496094 29.105469 11.941406 29.105469 12.488281 C 29.105469 13.035156 28.664062 13.480469 28.113281 13.480469 L 10.253906 13.480469 C 9.707031 13.480469 9.261719 13.035156 9.261719 12.488281 C 9.261719 11.941406 9.707031 11.496094 10.253906 11.496094 Z M 10.253906 11.496094 "/>
<path style=" stroke:none;fill-rule:nonzero;fill:rgb(25.882354%,25.882354%,25.882354%);fill-opacity:1;" d="M 10.253906 4.21875 L 28.113281 4.21875 C 28.664062 4.21875 29.105469 4.664062 29.105469 5.210938 C 29.105469 5.757812 28.664062 6.203125 28.113281 6.203125 L 10.253906 6.203125 C 9.707031 6.203125 9.261719 5.757812 9.261719 5.210938 C 9.261719 4.664062 9.707031 4.21875 10.253906 4.21875 Z M 10.253906 4.21875 "/>
<path style=" stroke:none;fill-rule:nonzero;fill:rgb(25.882354%,25.882354%,25.882354%);fill-opacity:1;" d="M 4.628906 3.226562 C 5.726562 3.226562 6.613281 4.117188 6.613281 5.210938 C 6.613281 6.308594 5.726562 7.195312 4.628906 7.195312 C 3.535156 7.195312 2.644531 6.308594 2.644531 5.210938 C 2.644531 4.117188 3.535156 3.226562 4.628906 3.226562 Z M 4.628906 3.226562 "/>
</g>
</svg>

<svg xmlns="http://www.w3.org/2000/svg" width="32pt" height="32pt" viewBox="0 0 32 32"><path d="M4.629 17.781a1.985 1.985 0 1 1 0 3.968 1.985 1.985 0 0 1 0-3.968zm0 0M4.629 10.504c1.098 0 1.984.887 1.984 1.984a1.985 1.985 0 1 1-1.984-1.984zm0 0M4.629 25.059a1.985 1.985 0 1 1 0 3.968 1.985 1.985 0 0 1 0-3.968zm0 0" fill="#26a69a"/><path d="M10.254 26.05h17.86c.55 0 .991.442.991.993a.991.991 0 0 1-.992.992h-17.86a.991.991 0 1 1 0-1.984zm0 0M10.254 18.773h17.86a.991.991 0 1 1 0 1.985h-17.86a.994.994 0 0 1-.992-.992c0-.547.445-.993.992-.993zm0 0M10.254 11.496h17.86a.991.991 0 1 1 0 1.984h-17.86a.994.994 0 0 1-.992-.992c0-.547.445-.992.992-.992zm0 0M10.254 4.219h17.86a.991.991 0 1 1 0 1.984h-17.86a.994.994 0 0 1-.992-.992c0-.547.445-.992.992-.992zm0 0M4.629 3.227a1.985 1.985 0 1 1 0 3.969 1.985 1.985 0 0 1 0-3.97zm0 0" fill="#424242"/></svg>
